X: 1
T: Amazone
T: Ronde du Quercy
R: jig
C: Cyril Brotto
M: 6/8
L: 1/8
K: Amin
|: "Am"e2e edc|"F"c3 cde|"Dm"fed edc|"Em"d2 d4|
"Am"e2e edc|"F"c3 cde|"Dm"fed edc|"E7"B6:|
|:"A"A2 "G"B2 "F"c2|"Dm"d6|"Em"ege dcB|"Am"c2 A4|
"A"A2 "G"B2 "F"c2|"Dm"d6|"Em"ege dcB|"Am"A6:|

